images/50406983.svg

<?xml version="1.0" encoding="UTF-8"?>
<svg xmlns="http://www.w3.org/2000/svg" xmlns:xlink="http://www.w3.org/1999/xlink" width="300pt" height="300pt" viewBox="0 0 300 300" version="1.1">
<defs>
<g>
<symbol overflow="visible" id="glyph0-0">
<path style="stroke:none;" d="M 0.453125 1.59375 L 0.453125 -6.34375 L 4.953125 -6.34375 L 4.953125 1.59375 Z M 0.953125 1.09375 L 4.453125 1.09375 L 4.453125 -5.84375 L 0.953125 -5.84375 Z M 0.953125 1.09375 "/>
</symbol>
<symbol overflow="visible" id="glyph0-1">
<path style="stroke:none;" d="M 3.546875 -5.953125 C 2.898438 -5.953125 2.382812 -5.710938 2 -5.234375 C 1.625 -4.753906 1.4375 -4.101562 1.4375 -3.28125 C 1.4375 -2.445312 1.625 -1.789062 2 -1.3125 C 2.382812 -0.832031 2.898438 -0.59375 3.546875 -0.59375 C 4.191406 -0.59375 4.703125 -0.832031 5.078125 -1.3125 C 5.453125 -1.789062 5.640625 -2.445312 5.640625 -3.28125 C 5.640625 -4.101562 5.453125 -4.753906 5.078125 -5.234375 C 4.703125 -5.710938 4.191406 -5.953125 3.546875 -5.953125 Z M 3.546875 -6.6875 C 4.460938 -6.6875 5.195312 -6.375 5.75 -5.75 C 6.300781 -5.132812 6.578125 -4.3125 6.578125 -3.28125 C 6.578125 -2.238281 6.300781 -1.410156 5.75 -0.796875 C 5.195312 -0.179688 4.460938 0.125 3.546875 0.125 C 2.617188 0.125 1.878906 -0.179688 1.328125 -0.796875 C 0.773438 -1.410156 0.5 -2.238281 0.5 -3.28125 C 0.5 -4.3125 0.773438 -5.132812 1.328125 -5.75 C 1.878906 -6.375 2.617188 -6.6875 3.546875 -6.6875 Z M 3.546875 -6.6875 "/>
</symbol>
<symbol overflow="visible" id="glyph0-2">
<path style="stroke:none;" d="M 0.890625 -6.5625 L 2.078125 -6.5625 L 4.984375 -1.078125 L 4.984375 -6.5625 L 5.84375 -6.5625 L 5.84375 0 L 4.65625 0 L 1.75 -5.484375 L 1.75 0 L 0.890625 0 Z M 0.890625 -6.5625 "/>
</symbol>
<symbol overflow="visible" id="glyph0-3">
<path style="stroke:none;" d="M 0.890625 -6.5625 L 1.765625 -6.5625 L 1.765625 -3.875 L 5 -3.875 L 5 -6.5625 L 5.890625 -6.5625 L 5.890625 0 L 5 0 L 5 -3.125 L 1.765625 -3.125 L 1.765625 0 L 0.890625 0 Z M 0.890625 -6.5625 "/>
</symbol>
</g>
</defs>
<g id="surface10889">
<rect x="0" y="0" width="300" height="300" style="fill:rgb(100%,100%,100%);fill-opacity:1;stroke:none;"/>
<path style="fill:none;stroke-width:1.2;stroke-linecap:butt;stroke-linejoin:miter;stroke:rgb(100%,0%,0%);stroke-opacity:1;stroke-miterlimit:10;" d="M 51.683594 166.332031 L 52.457031 156.140625 "/>
<path style="fill:none;stroke-width:1.2;stroke-linecap:butt;stroke-linejoin:miter;stroke:rgb(0%,0%,0%);stroke-opacity:1;stroke-miterlimit:10;" d="M 52.457031 156.140625 L 53.230469 145.945312 "/>
<path style="fill:none;stroke-width:1.2;stroke-linecap:butt;stroke-linejoin:miter;stroke:rgb(100%,0%,0%);stroke-opacity:1;stroke-miterlimit:10;" d="M 46.886719 165.96875 L 47.660156 155.773438 "/>
<path style="fill:none;stroke-width:1.2;stroke-linecap:butt;stroke-linejoin:miter;stroke:rgb(0%,0%,0%);stroke-opacity:1;stroke-miterlimit:10;" d="M 47.660156 155.773438 L 48.433594 145.582031 "/>
<path style=" stroke:none;fill-rule:nonzero;fill:rgb(100%,100%,100%);fill-opacity:1;" d="M 45.285156 160.652344 L 53.285156 160.652344 L 53.285156 171.652344 L 45.285156 171.652344 Z M 45.285156 160.652344 "/>
<g style="fill:rgb(100%,0%,0%);fill-opacity:1;">
  <use xlink:href="#glyph0-1" x="45.285156" y="169.31543"/>
</g>
<path style="fill:none;stroke-width:1.2;stroke-linecap:butt;stroke-linejoin:miter;stroke:rgb(0%,0%,0%);stroke-opacity:1;stroke-miterlimit:10;" d="M 50.832031 145.765625 L 59.535156 140.398438 "/>
<path style="fill:none;stroke-width:1.2;stroke-linecap:butt;stroke-linejoin:miter;stroke:rgb(0%,0%,100%);stroke-opacity:1;stroke-miterlimit:10;" d="M 59.535156 140.398438 L 68.238281 135.03125 "/>
<path style="fill:none;stroke-width:1.2;stroke-linecap:butt;stroke-linejoin:miter;stroke:rgb(0%,0%,0%);stroke-opacity:1;stroke-miterlimit:10;" d="M 35.25 132.527344 L 50.832031 145.765625 "/>
<path style="fill:none;stroke-width:1.2;stroke-linecap:butt;stroke-linejoin:miter;stroke:rgb(0%,0%,100%);stroke-opacity:1;stroke-miterlimit:10;" d="M 68.238281 135.03125 L 65.824219 125.097656 "/>
<path style="fill:none;stroke-width:1.2;stroke-linecap:butt;stroke-linejoin:miter;stroke:rgb(0%,0%,0%);stroke-opacity:1;stroke-miterlimit:10;" d="M 65.824219 125.097656 L 63.410156 115.164062 "/>
<path style="fill:none;stroke-width:1.2;stroke-linecap:butt;stroke-linejoin:miter;stroke:rgb(0%,0%,100%);stroke-opacity:1;stroke-miterlimit:10;" d="M 68.238281 135.03125 L 77.691406 138.917969 "/>
<path style="fill:none;stroke-width:1.2;stroke-linecap:butt;stroke-linejoin:miter;stroke:rgb(0%,0%,0%);stroke-opacity:1;stroke-miterlimit:10;" d="M 77.691406 138.917969 L 87.148438 142.804688 "/>
<path style=" stroke:none;fill-rule:nonzero;fill:rgb(100%,100%,100%);fill-opacity:1;" d="M 65.238281 129.53125 L 72.238281 129.53125 L 72.238281 140.53125 L 65.238281 140.53125 Z M 65.238281 129.53125 "/>
<g style="fill:rgb(0%,0%,100%);fill-opacity:1;">
  <use xlink:href="#glyph0-2" x="65.238281" y="138.194336"/>
</g>
<path style="fill:none;stroke-width:1.2;stroke-linecap:butt;stroke-linejoin:miter;stroke:rgb(0%,0%,0%);stroke-opacity:1;stroke-miterlimit:10;" d="M 63.410156 115.164062 L 43.023438 113.617188 "/>
<path style="fill:none;stroke-width:1.2;stroke-linecap:butt;stroke-linejoin:miter;stroke:rgb(0%,0%,0%);stroke-opacity:1;stroke-miterlimit:10;" d="M 43.023438 113.617188 L 35.25 132.527344 "/>
<path style="fill:none;stroke-width:1.2;stroke-linecap:butt;stroke-linejoin:miter;stroke:rgb(0%,0%,0%);stroke-opacity:1;stroke-miterlimit:10;" d="M 87.148438 142.804688 L 89.875 163.066406 "/>
<path style="fill:none;stroke-width:1.2;stroke-linecap:butt;stroke-linejoin:miter;stroke:rgb(0%,0%,0%);stroke-opacity:1;stroke-miterlimit:10;" d="M 92.1875 144.1875 L 94.367188 160.398438 "/>
<path style="fill:none;stroke-width:1.2;stroke-linecap:butt;stroke-linejoin:miter;stroke:rgb(0%,0%,0%);stroke-opacity:1;stroke-miterlimit:10;" d="M 103.335938 130.3125 L 87.148438 142.804688 "/>
<path style="fill:none;stroke-width:1.2;stroke-linecap:butt;stroke-linejoin:miter;stroke:rgb(0%,0%,0%);stroke-opacity:1;stroke-miterlimit:10;" d="M 89.875 163.066406 L 108.785156 170.839844 "/>
<path style="fill:none;stroke-width:1.2;stroke-linecap:butt;stroke-linejoin:miter;stroke:rgb(0%,0%,0%);stroke-opacity:1;stroke-miterlimit:10;" d="M 108.785156 170.839844 L 124.96875 158.347656 "/>
<path style="fill:none;stroke-width:1.2;stroke-linecap:butt;stroke-linejoin:miter;stroke:rgb(0%,0%,0%);stroke-opacity:1;stroke-miterlimit:10;" d="M 107.464844 165.78125 L 120.414062 155.789062 "/>
<path style="fill:none;stroke-width:1.2;stroke-linecap:butt;stroke-linejoin:miter;stroke:rgb(0%,0%,0%);stroke-opacity:1;stroke-miterlimit:10;" d="M 124.96875 158.347656 L 122.246094 138.085938 "/>
<path style=" stroke:none;fill-rule:nonzero;fill:rgb(0%,0%,0%);fill-opacity:1;" d="M 143.882812 166.121094 L 126.339844 155.011719 L 123.597656 161.683594 Z M 143.882812 166.121094 "/>
<path style="fill:none;stroke-width:1.2;stroke-linecap:butt;stroke-linejoin:miter;stroke:rgb(0%,0%,0%);stroke-opacity:1;stroke-miterlimit:10;" d="M 122.246094 138.085938 L 103.335938 130.3125 "/>
<path style="fill:none;stroke-width:1.2;stroke-linecap:butt;stroke-linejoin:miter;stroke:rgb(0%,0%,0%);stroke-opacity:1;stroke-miterlimit:10;" d="M 118.523438 141.757812 L 103.398438 135.539062 "/>
<path style="fill:none;stroke-width:1.2;stroke-linecap:butt;stroke-linejoin:miter;stroke:rgb(0%,0%,0%);stroke-opacity:1;stroke-miterlimit:10;" d="M 143.882812 166.121094 L 160.066406 153.628906 "/>
<path style="fill:none;stroke-width:1.2;stroke-linecap:butt;stroke-linejoin:miter;stroke:rgb(0%,0%,0%);stroke-opacity:1;stroke-miterlimit:10;" d="M 143.882812 166.121094 L 146.605469 186.382812 "/>
<path style="fill:none;stroke-width:1.2;stroke-linecap:butt;stroke-linejoin:miter;stroke:rgb(0%,0%,0%);stroke-opacity:1;stroke-miterlimit:10;" d="M 162.449219 153.308594 L 161.089844 143.175781 "/>
<path style="fill:none;stroke-width:1.2;stroke-linecap:butt;stroke-linejoin:miter;stroke:rgb(100%,0%,0%);stroke-opacity:1;stroke-miterlimit:10;" d="M 161.089844 143.175781 L 159.726562 133.042969 "/>
<path style="fill:none;stroke-width:1.2;stroke-linecap:butt;stroke-linejoin:miter;stroke:rgb(0%,0%,0%);stroke-opacity:1;stroke-miterlimit:10;" d="M 157.683594 153.949219 L 156.320312 143.816406 "/>
<path style="fill:none;stroke-width:1.2;stroke-linecap:butt;stroke-linejoin:miter;stroke:rgb(100%,0%,0%);stroke-opacity:1;stroke-miterlimit:10;" d="M 156.320312 143.816406 L 154.957031 133.683594 "/>
<path style="fill:none;stroke-width:1.2;stroke-linecap:butt;stroke-linejoin:miter;stroke:rgb(0%,0%,0%);stroke-opacity:1;stroke-miterlimit:10;" d="M 160.066406 153.628906 L 169.523438 157.511719 "/>
<path style="fill:none;stroke-width:1.2;stroke-linecap:butt;stroke-linejoin:miter;stroke:rgb(0%,0%,100%);stroke-opacity:1;stroke-miterlimit:10;" d="M 169.523438 157.511719 L 178.976562 161.398438 "/>
<path style=" stroke:none;fill-rule:nonzero;fill:rgb(100%,100%,100%);fill-opacity:1;" d="M 153.34375 127.863281 L 161.34375 127.863281 L 161.34375 138.863281 L 153.34375 138.863281 Z M 153.34375 127.863281 "/>
<g style="fill:rgb(100%,0%,0%);fill-opacity:1;">
  <use xlink:href="#glyph0-1" x="153.34375" y="136.526367"/>
</g>
<path style="fill:none;stroke-width:1.2;stroke-linecap:butt;stroke-linejoin:miter;stroke:rgb(0%,0%,100%);stroke-opacity:1;stroke-miterlimit:10;" d="M 178.976562 161.398438 L 187.070312 155.152344 "/>
<path style="fill:none;stroke-width:1.2;stroke-linecap:butt;stroke-linejoin:miter;stroke:rgb(0%,0%,0%);stroke-opacity:1;stroke-miterlimit:10;" d="M 187.070312 155.152344 L 195.164062 148.90625 "/>
<path style=" stroke:none;fill-rule:nonzero;fill:rgb(100%,100%,100%);fill-opacity:1;" d="M 171.976562 155.898438 L 185.976562 155.898438 L 185.976562 166.898438 L 171.976562 166.898438 Z M 171.976562 155.898438 "/>
<g style="fill:rgb(0%,0%,100%);fill-opacity:1;">
  <use xlink:href="#glyph0-2" x="171.976562" y="164.561523"/>
  <use xlink:href="#glyph0-3" x="178.954102" y="164.561523"/>
</g>
<path style="fill:none;stroke-width:1.2;stroke-linecap:butt;stroke-linejoin:miter;stroke:rgb(0%,0%,0%);stroke-opacity:1;stroke-miterlimit:10;" d="M 195.164062 148.90625 L 194.867188 138.6875 "/>
<path style="fill:none;stroke-width:1.2;stroke-linecap:butt;stroke-linejoin:miter;stroke:rgb(0%,0%,100%);stroke-opacity:1;stroke-miterlimit:10;" d="M 194.867188 138.6875 L 194.570312 128.46875 "/>
<path style="fill:none;stroke-width:1.2;stroke-linecap:butt;stroke-linejoin:miter;stroke:rgb(0%,0%,0%);stroke-opacity:1;stroke-miterlimit:10;" d="M 214.785156 154.660156 L 195.164062 148.90625 "/>
<path style="fill:none;stroke-width:1.2;stroke-linecap:butt;stroke-linejoin:miter;stroke:rgb(0%,0%,0%);stroke-opacity:1;stroke-miterlimit:10;" d="M 214.175781 149.46875 L 198.480469 144.867188 "/>
<path style="fill:none;stroke-width:1.2;stroke-linecap:butt;stroke-linejoin:miter;stroke:rgb(0%,0%,100%);stroke-opacity:1;stroke-miterlimit:10;" d="M 194.570312 128.46875 L 213.824219 121.59375 "/>
<path style=" stroke:none;fill-rule:nonzero;fill:rgb(100%,100%,100%);fill-opacity:1;" d="M 187.570312 122.96875 L 201.570312 122.96875 L 201.570312 133.96875 L 187.570312 133.96875 Z M 187.570312 122.96875 "/>
<g style="fill:rgb(0%,0%,100%);fill-opacity:1;">
  <use xlink:href="#glyph0-2" x="187.570312" y="131.631836"/>
  <use xlink:href="#glyph0-3" x="194.547852" y="131.631836"/>
</g>
<path style="fill:none;stroke-width:1.2;stroke-linecap:butt;stroke-linejoin:miter;stroke:rgb(0%,0%,100%);stroke-opacity:1;stroke-miterlimit:10;" d="M 213.824219 121.59375 L 220.070312 129.683594 "/>
<path style="fill:none;stroke-width:1.2;stroke-linecap:butt;stroke-linejoin:miter;stroke:rgb(0%,0%,0%);stroke-opacity:1;stroke-miterlimit:10;" d="M 220.070312 129.683594 L 226.316406 137.777344 "/>
<path style="fill:none;stroke-width:1.2;stroke-linecap:butt;stroke-linejoin:miter;stroke:rgb(0%,0%,100%);stroke-opacity:1;stroke-miterlimit:10;" d="M 211.265625 126.148438 L 216.261719 132.625 "/>
<path style="fill:none;stroke-width:1.2;stroke-linecap:butt;stroke-linejoin:miter;stroke:rgb(0%,0%,0%);stroke-opacity:1;stroke-miterlimit:10;" d="M 216.261719 132.625 L 221.261719 139.097656 "/>
<path style=" stroke:none;fill-rule:nonzero;fill:rgb(100%,100%,100%);fill-opacity:1;" d="M 210.824219 116.09375 L 217.824219 116.09375 L 217.824219 127.09375 L 210.824219 127.09375 Z M 210.824219 116.09375 "/>
<g style="fill:rgb(0%,0%,100%);fill-opacity:1;">
  <use xlink:href="#glyph0-2" x="210.824219" y="124.756836"/>
</g>
<path style="fill:none;stroke-width:1.2;stroke-linecap:butt;stroke-linejoin:miter;stroke:rgb(0%,0%,0%);stroke-opacity:1;stroke-miterlimit:10;" d="M 226.316406 137.777344 L 214.785156 154.660156 "/>
<path style="fill:none;stroke-width:1.2;stroke-linecap:butt;stroke-linejoin:miter;stroke:rgb(0%,0%,0%);stroke-opacity:1;stroke-miterlimit:10;" d="M 226.316406 137.777344 L 246.753906 137.1875 "/>
<path style="fill:none;stroke-width:1.2;stroke-linecap:butt;stroke-linejoin:miter;stroke:rgb(0%,0%,0%);stroke-opacity:1;stroke-miterlimit:10;" d="M 246.753906 137.1875 L 264.15625 126.453125 "/>
<path style="fill:none;stroke-width:1.2;stroke-linecap:butt;stroke-linejoin:miter;stroke:rgb(0%,0%,0%);stroke-opacity:1;stroke-miterlimit:10;" d="M 264.75 146.890625 L 246.753906 137.1875 "/>
<path style="fill:none;stroke-width:1.2;stroke-linecap:butt;stroke-linejoin:miter;stroke:rgb(0%,0%,0%);stroke-opacity:1;stroke-miterlimit:10;" d="M 264.15625 126.453125 L 264.75 146.890625 "/>
</g>
</svg>

<svg xmlns="http://www.w3.org/2000/svg" xmlns:xlink="http://www.w3.org/1999/xlink" width="300pt" height="300pt" viewBox="0 0 300 300"><defs><symbol overflow="visible"><path d="M.453 1.594v-7.938h4.5v7.938zm.5-.5h3.5v-6.938h-3.5zm0 0"/></symbol><symbol overflow="visible" id="a"><path d="M3.547-5.953c-.65 0-1.164.242-1.547.72-.375.48-.563 1.13-.563 1.952 0 .835.188 1.49.563 1.967.383.48.898.72 1.547.72.644 0 1.156-.24 1.53-.72.376-.476.564-1.132.564-1.968 0-.822-.187-1.474-.562-1.954-.375-.477-.887-.72-1.53-.72zm0-.734c.914 0 1.648.312 2.203.937.55.617.828 1.438.828 2.47 0 1.042-.277 1.87-.828 2.483-.555.617-1.29.922-2.203.922-.93 0-1.668-.305-2.22-.922C.774-1.41.5-2.237.5-3.28c0-1.033.273-1.853.828-2.47.55-.625 1.29-.938 2.22-.938zm0 0"/></symbol><symbol overflow="visible" id="b"><path d="M.89-6.563H2.08l2.906 5.485v-5.484h.86V0H4.656L1.75-5.484V0H.89zm0 0"/></symbol><symbol overflow="visible" id="c"><path d="M.89-6.563h.876v2.688H5v-2.688h.89V0H5v-3.125H1.766V0H.89zm0 0"/></symbol></defs><g><path fill="#fff" d="M0 0h300v300H0z"/><path d="M51.684 166.332l.773-10.19" stroke-width="1.2" stroke="#f00" stroke-miterlimit="10" fill="none"/><path d="M52.457 156.14l.773-10.195" stroke-width="1.2" stroke="#000" stroke-miterlimit="10" fill="none"/><path d="M46.887 165.97l.773-10.197" stroke-width="1.2" stroke="#f00" stroke-miterlimit="10" fill="none"/><path d="M47.66 155.773l.774-10.19" stroke-width="1.2" stroke="#000" stroke-miterlimit="10" fill="none"/><path d="M45.285 160.652h8v11h-8zm0 0" fill="#fff"/><use xlink:href="#a" x="45.285" y="169.315" fill="#f00"/><path d="M50.832 145.766l8.703-5.368" stroke-width="1.2" stroke="#000" stroke-miterlimit="10" fill="none"/><path d="M59.535 140.398l8.703-5.367" stroke-width="1.2" stroke="#00f" stroke-miterlimit="10" fill="none"/><path d="M35.25 132.527l15.582 13.24" stroke-width="1.2" stroke="#000" stroke-miterlimit="10" fill="none"/><path d="M68.238 135.03l-2.414-9.932" stroke-width="1.2" stroke="#00f" stroke-miterlimit="10" fill="none"/><path d="M65.824 125.098l-2.414-9.934" stroke-width="1.2" stroke="#000" stroke-miterlimit="10" fill="none"/><path d="M68.238 135.03l9.453 3.888" stroke-width="1.2" stroke="#00f" stroke-miterlimit="10" fill="none"/><path d="M77.69 138.918l9.458 3.887" stroke-width="1.2" stroke="#000" stroke-miterlimit="10" fill="none"/><path d="M65.238 129.53h7v11h-7zm0 0" fill="#fff"/><use xlink:href="#b" x="65.238" y="138.194" fill="#00f"/><path d="M63.41 115.164l-20.387-1.547M43.023 113.617l-7.773 18.91M87.148 142.805l2.727 20.26M92.188 144.188l2.18 16.21M103.336 130.313l-16.188 12.492M89.875 163.066l18.91 7.774M108.785 170.84l16.184-12.492M107.465 165.78l12.95-9.99M124.97 158.348l-2.724-20.262" stroke-width="1.2" stroke="#000" stroke-miterlimit="10" fill="none"/><path d="M143.883 166.12l-17.543-11.108-2.742 6.672zm0 0"/><path d="M122.246 138.086l-18.91-7.774M118.523 141.758l-15.125-6.22M143.883 166.12l16.183-12.49M143.883 166.12l2.722 20.263M162.45 153.31l-1.36-10.134" stroke-width="1.2" stroke="#000" stroke-miterlimit="10" fill="none"/><path d="M161.09 143.176l-1.363-10.133" stroke-width="1.2" stroke="#f00" stroke-miterlimit="10" fill="none"/><path d="M157.684 153.95l-1.364-10.134" stroke-width="1.2" stroke="#000" stroke-miterlimit="10" fill="none"/><path d="M156.32 143.816l-1.363-10.132" stroke-width="1.2" stroke="#f00" stroke-miterlimit="10" fill="none"/><path d="M160.066 153.63l9.457 3.882" stroke-width="1.2" stroke="#000" stroke-miterlimit="10" fill="none"/><path d="M169.523 157.512l9.454 3.886" stroke-width="1.2" stroke="#00f" stroke-miterlimit="10" fill="none"/><path d="M153.344 127.863h8v11h-8zm0 0" fill="#fff"/><use xlink:href="#a" x="153.344" y="136.526" fill="#f00"/><path d="M178.977 161.398l8.093-6.246" stroke-width="1.2" stroke="#00f" stroke-miterlimit="10" fill="none"/><path d="M187.07 155.152l8.094-6.246" stroke-width="1.2" stroke="#000" stroke-miterlimit="10" fill="none"/><path d="M171.977 155.898h14v11h-14zm0 0" fill="#fff"/><g fill="#00f"><use xlink:href="#b" x="171.977" y="164.562"/><use xlink:href="#c" x="178.954" y="164.562"/></g><path d="M195.164 148.906l-.297-10.22" stroke-width="1.2" stroke="#000" stroke-miterlimit="10" fill="none"/><path d="M194.867 138.688l-.297-10.22" stroke-width="1.2" stroke="#00f" stroke-miterlimit="10" fill="none"/><path d="M214.785 154.66l-19.62-5.754M214.176 149.47l-15.696-4.603" stroke-width="1.2" stroke="#000" stroke-miterlimit="10" fill="none"/><path d="M194.57 128.47l19.254-6.876" stroke-width="1.2" stroke="#00f" stroke-miterlimit="10" fill="none"/><path d="M187.57 122.97h14v11h-14zm0 0" fill="#fff"/><g fill="#00f"><use xlink:href="#b" x="187.57" y="131.632"/><use xlink:href="#c" x="194.548" y="131.632"/></g><path d="M213.824 121.594l6.246 8.09" stroke-width="1.2" stroke="#00f" stroke-miterlimit="10" fill="none"/><path d="M220.07 129.684l6.246 8.093" stroke-width="1.2" stroke="#000" stroke-miterlimit="10" fill="none"/><path d="M211.266 126.148l4.996 6.477" stroke-width="1.2" stroke="#00f" stroke-miterlimit="10" fill="none"/><path d="M216.262 132.625l5 6.473" stroke-width="1.2" stroke="#000" stroke-miterlimit="10" fill="none"/><path d="M210.824 116.094h7v11h-7zm0 0" fill="#fff"/><use xlink:href="#b" x="210.824" y="124.757" fill="#00f"/><path d="M226.316 137.777l-11.53 16.883M226.316 137.777l20.438-.59M246.754 137.188l17.402-10.735M264.75 146.89l-17.996-9.702M264.156 126.453l.594 20.438" stroke-width="1.2" stroke="#000" stroke-miterlimit="10" fill="none"/></g></svg>
